X:21129 
T:MCFADDEN'S MISHAP (reel)
B:DMI.0637
Z:Nordberg/Black
N:Source m.15: /(3bag (3agf (3gfe dc/
R:reel % A-B-A
%Q:1/4=180
M:C|
L:1/8
K:G
G2DB, G,B,DB,|CB,A,B, CDEF|G2DB, G,B,DF|Ggdc BcAF|
GGDB, G,B,DB,|CB,A,B, CDEF|GFGf gedc|BdAc BGG2||
g2dB GBdf|gbag fdef|g2dB GBdB|cBAG FGAd|
gedB GBdf|gbag fgag|"15"bgaf gedc|BdAG FDEF|]
"repeat mm 1 - 8"

%%%

